src/images/avatars/avatar-5.svg

<svg fill="none" height="77" viewBox="0 0 45 77" width="45" xmlns="http://www.w3.org/2000/svg"><path d="m2.50015 27.4c-.5-10.7 2.79999-26.4 19.49995-26.4 17 0 20.7 16.4 20.2 26.6-.7 13.1-39.39995 7.3-39.69995-.2z" fill="#ffa20d" stroke="#4d4d4d" stroke-linejoin="round" stroke-miterlimit="10" stroke-width="2"/><path d="m27.4 57.2v-14.5h-10.2v14.5c0 1.1-.9 2-2 2h-1.7c0 3.4 4.7 12.8 8.8 12.8s8.8-9.4 8.8-12.8h-1.6c-1.2 0-2.1-.9-2.1-2z" fill="#fcc5af" stroke="#4d4d4d" stroke-linejoin="round" stroke-miterlimit="10" stroke-width="2"/><path d="m26.4 59.7c-1.5 0-7.8-7.1-7.8-7.8.1-1.5-.1-.9-.1-.9l7.9.2s.1 8.4 0 8.5z" fill="#f99f7a" opacity=".5"/><g stroke-linejoin="round" stroke-miterlimit="10" stroke-width="2"><path d="m4.90002 36.3c2.15392 0 3.89997-1.7461 3.89997-3.9s-1.74605-3.9-3.89997-3.9c-2.15391 0-3.90002 1.7461-3.90002 3.9s1.74611 3.9 3.90002 3.9z" fill="#fcc5af" stroke="#4d4d4d"/><path d="m39.7 36.3c2.1539 0 3.9-1.7461 3.9-3.9s-1.7461-3.9-3.9-3.9c-2.154 0-3.9001 1.7461-3.9001 3.9s1.7461 3.9 3.9001 3.9z" fill="#fcc5af" stroke="#4d4d4d"/><path d="m25.4998 8.6c-4.1-.6-5.8-3.1-6.7-3.1-7.5 0-14 4.3-14 27.4 0 12.5 9.3 19 17 19 8.8 0 18-6.5 18-20.7 0-12.6-1.9999-19.5-7.1999-23.2-.3-.3-3.1001 1.2-7.1001.6z" fill="#fcc5af" stroke="#4d4d4d"/><path d="m27.4998 13.8c-2.7.4-6.1.2-8.2-.6" opacity=".0324" stroke="#bd9483" stroke-linecap="round"/><path d="m29.3998 17.6c-4.9.8-10.2.4-13.6-1.2" opacity=".0324" stroke="#bd9483" stroke-linecap="round"/><path d="m27.9999 23.2s2.4-1.4 4.8-.6" stroke="#4d4d4d" stroke-linecap="round"/><path d="m16.6999 23.2s-2.4-1.4-4.8-.6" stroke="#4d4d4d" stroke-linecap="round"/><path d="m21.1001 37v1.7c0 .7.4999 1.3 1.1999 1.3h1.5" stroke="#4d4d4d" stroke-linecap="round"/><path d="m20.2002 46c1.5.7 2.8.7 4.2 0" stroke="#4d4d4d" stroke-linecap="round"/></g><path d="m14.7999 31.7c.8284 0 1.5-.6716 1.5-1.5s-.6716-1.5-1.5-1.5c-.8285 0-1.5001.6716-1.5001 1.5s.6716 1.5 1.5001 1.5z" fill="#4d4d4d"/><path d="m29.8999 31.7c.8285 0 1.5001-.6716 1.5001-1.5s-.6716-1.5-1.5001-1.5c-.8284 0-1.5.6716-1.5 1.5s.6716 1.5 1.5 1.5z" fill="#4d4d4d"/><path d="m35.6001 30.3 4.5-2.5" stroke="#4d4d4d" stroke-linejoin="round" stroke-miterlimit="10" stroke-width="2"/><path d="m4.5 27.8 3.90002 1.7" stroke="#4d4d4d" stroke-linejoin="round" stroke-miterlimit="10" stroke-width="2"/><path d="m14.2 35.3c-3 0-5.7-.9-5.7-5.1 0-2.1 1.2-4 5.5-4 4.9 0 6.2 1.8 6.2 4 0 2.9-2.9 5.1-6 5.1z" style="fill:#4d4d4d;fill-opacity:.9;stroke:#4d4d4d;stroke-width:2;stroke-miterlimit:10;stroke-linecap:round;stroke-linejoin:round"/><path d="m30.4 35.3c3 0 5.7-.9 5.7-5.1 0-2.1-1.2-4-5.5-4-4.9 0-6.2 1.8-6.2 4 0 2.9 3 5.1 6 5.1z" style="fill:#4d4d4d;fill-opacity:.9;stroke:#4d4d4d;stroke-width:2;stroke-miterlimit:10;stroke-linecap:round;stroke-linejoin:round"/><path d="m19.7002 29.1c1.9.7 3.7.8 5.3 0" stroke="#4d4d4d" stroke-linejoin="round" stroke-miterlimit="10" stroke-width="2"/><path d="m42.6001 65.9c0-4.4-3.6-8-8-8l-8.5.7s-3.7 4.2-3.7 16c0-11.7-4.1-16-4.1-16l-8.3-.7c-4.39998 0-7.99998 3.6-7.99998 8v1.3c5.29999 4.9 12.39998 7.8 20.19998 7.8 7.9 0 15-3 20.4-8z" fill="#5c5c5c"/><path d="m42.6001 65.9c0-4.4-3.6-8-8-8l-8.5.7s-3.7 4.2-3.7 16c0-11.7-4.1-16-4.1-16l-8.3-.7c-4.39998 0-7.99998 3.6-7.99998 8v1.3c5.29999 4.9 12.39998 7.8 20.19998 7.8 7.9 0 15-3 20.4-8z" fill="#fff"/><path d="m42.6001 65.9c0-4.4-3.6-8-8-8l-8.5.7s-3.7 4.2-3.7 16c0-11.7-4.1-16-4.1-16l-8.3-.7c-4.39998 0-7.99998 3.6-7.99998 8v1.3c5.29999 4.9 12.39998 7.8 20.19998 7.8 7.9 0 15-3 20.4-8z" stroke="#4d4d4d" stroke-linejoin="round" stroke-miterlimit="10" stroke-width="2"/><path d="m42.6001 65.9c0-4.4-3.6-8-8-8h-2.5l-9.7 17.2-9.4-17.2h-4.29998c-3.09999 0-6.7 3.6-6.7 8v1.3c5.29999 4.9 12.39998 7.8 20.19998 7.8 7.9 0 15-3.1 20.4-8z" fill="#5c5c5c"/><path d="m42.6001 65.9c0-4.4-3.6-8-8-8h-2.5l-9.7 17.2-9.4-17.2h-4.29998c-3.09999 0-6.7 3.6-6.7 8v1.3c5.29999 4.9 12.39998 7.8 20.19998 7.8 7.9 0 15-3.1 20.4-8z" stroke="#4d4d4d" stroke-linejoin="round" stroke-miterlimit="10" stroke-width="2"/><path d="m17.4998 52.2s-.8 4 .7 7.1c0 0-3.8 2.7-5.1 6.6-3.29997-4.5-1.9-12.1 4.4-13.7z" fill="#fff" stroke="#4d4d4d" stroke-linejoin="round" stroke-miterlimit="10" stroke-width="2"/><path d="m27.1998 52.2s.8 4-.7 7.1c0 0 3.8 2.7 5.1 6.6 3.3-4.5 1.9-12.1-4.4-13.7z" fill="#fff" stroke="#4d4d4d" stroke-linejoin="round" stroke-miterlimit="10" stroke-width="2"/><path d="m8.3999 66.7v4.4" stroke="#4d4d4d" stroke-linecap="round" stroke-linejoin="round" stroke-miterlimit="10" stroke-width="2"/><path d="m36.2998 66.7v4.4" stroke="#4d4d4d" stroke-linecap="round" stroke-linejoin="round" stroke-miterlimit="10" stroke-width="2"/></svg>

<svg width="45" height="77" viewBox="0 0 45 77" fill="none" xmlns="http://www.w3.org/2000/svg">
<path d="M2.50015 27.4C2.00015 16.7 5.30014 1 22.0001 1C39.0001 1 42.7001 17.4 42.2001 27.6C41.5001 40.7 2.80015 34.9 2.50015 27.4Z" fill="#FFA20D" stroke="#4D4D4D" stroke-width="2" stroke-miterlimit="10" stroke-linejoin="round"/>
<path d="M27.4 57.2V42.7H17.2V57.2C17.2 58.3 16.3 59.2 15.2 59.2H13.5C13.5 62.6 18.2 72 22.3 72C26.4 72 31.1 62.6 31.1 59.2H29.5C28.3 59.2 27.4 58.3 27.4 57.2Z" fill="#FCC5AF" stroke="#4D4D4D" stroke-width="2" stroke-miterlimit="10" stroke-linejoin="round"/>
<path opacity="0.5" d="M26.4 59.7C24.9 59.7 18.6 52.6 18.6 51.9C18.7 50.4 18.5 51 18.5 51L26.4 51.2C26.4 51.2 26.5 59.6 26.4 59.7Z" fill="#F99F7A"/>
<path d="M4.90002 36.3C7.05394 36.3 8.79999 34.5539 8.79999 32.4C8.79999 30.2461 7.05394 28.5 4.90002 28.5C2.74611 28.5 1 30.2461 1 32.4C1 34.5539 2.74611 36.3 4.90002 36.3Z" fill="#FCC5AF" stroke="#4D4D4D" stroke-width="2" stroke-miterlimit="10" stroke-linejoin="round"/>
<path d="M39.7 36.3C41.8539 36.3 43.6 34.5539 43.6 32.4C43.6 30.2461 41.8539 28.5 39.7 28.5C37.546 28.5 35.7999 30.2461 35.7999 32.4C35.7999 34.5539 37.546 36.3 39.7 36.3Z" fill="#FCC5AF" stroke="#4D4D4D" stroke-width="2" stroke-miterlimit="10" stroke-linejoin="round"/>
<path d="M25.4998 8.6C21.3998 8 19.6998 5.5 18.7998 5.5C11.2998 5.5 4.7998 9.8 4.7998 32.9C4.7998 45.4 14.0998 51.9 21.7998 51.9C30.5998 51.9 39.7998 45.4 39.7998 31.2C39.7998 18.6 37.7999 11.7 32.5999 8C32.2999 7.7 29.4998 9.2 25.4998 8.6Z" fill="#FCC5AF" stroke="#4D4D4D" stroke-width="2" stroke-miterlimit="10" stroke-linejoin="round"/>
<g opacity="0.18">
<path opacity="0.18" d="M27.4998 13.8C24.7998 14.2 21.3998 14 19.2998 13.2" stroke="#BD9483" stroke-width="2" stroke-miterlimit="10" stroke-linecap="round" stroke-linejoin="round"/>
</g>
<g opacity="0.18">
<path opacity="0.18" d="M29.3998 17.6C24.4998 18.4 19.1998 18 15.7998 16.4" stroke="#BD9483" stroke-width="2" stroke-miterlimit="10" stroke-linecap="round" stroke-linejoin="round"/>
</g>
<path d="M27.9999 23.2C27.9999 23.2 30.3999 21.8 32.7999 22.6" stroke="#4D4D4D" stroke-width="2" stroke-miterlimit="10" stroke-linecap="round" stroke-linejoin="round"/>
<path d="M16.6999 23.2C16.6999 23.2 14.2999 21.8 11.8999 22.6" stroke="#4D4D4D" stroke-width="2" stroke-miterlimit="10" stroke-linecap="round" stroke-linejoin="round"/>
<path d="M21.1001 37V38.7C21.1001 39.4 21.6 40 22.3 40H23.8" stroke="#4D4D4D" stroke-width="2" stroke-miterlimit="10" stroke-linecap="round" stroke-linejoin="round"/>
<path d="M20.2002 46C21.7002 46.7 23.0002 46.7 24.4002 46" stroke="#4D4D4D" stroke-width="2" stroke-miterlimit="10" stroke-linecap="round" stroke-linejoin="round"/>
<path d="M14.7999 31.7C15.6283 31.7 16.2999 31.0284 16.2999 30.2C16.2999 29.3716 15.6283 28.7 14.7999 28.7C13.9714 28.7 13.2998 29.3716 13.2998 30.2C13.2998 31.0284 13.9714 31.7 14.7999 31.7Z" fill="#4D4D4D"/>
<path d="M29.8999 31.7C30.7284 31.7 31.4 31.0284 31.4 30.2C31.4 29.3716 30.7284 28.7 29.8999 28.7C29.0715 28.7 28.3999 29.3716 28.3999 30.2C28.3999 31.0284 29.0715 31.7 29.8999 31.7Z" fill="#4D4D4D"/>
<path d="M35.6001 30.3L40.1001 27.8" stroke="#4D4D4D" stroke-width="2" stroke-miterlimit="10" stroke-linejoin="round"/>
<path d="M4.5 27.8L8.40002 29.5" stroke="#4D4D4D" stroke-width="2" stroke-miterlimit="10" stroke-linejoin="round"/>
<path d="M14.2 35.3C11.2 35.3 8.5 34.4 8.5 30.2C8.5 28.1 9.7 26.2 14 26.2C18.9 26.2 20.2 28 20.2 30.2C20.2 33.1 17.3 35.3 14.2 35.3Z" fill="#4D4D4D" fill-opacity="0.9" stroke="#4D4D4D" stroke-width="2" stroke-miterlimit="10" stroke-linecap="round" stroke-linejoin="round"/>
<path d="M30.4 35.3C33.4 35.3 36.1 34.4 36.1 30.2C36.1 28.1 34.9 26.2 30.6 26.2C25.7 26.2 24.4 28 24.4 30.2C24.4 33.1 27.4 35.3 30.4 35.3Z" fill="#4D4D4D" fill-opacity="0.9" stroke="#4D4D4D" stroke-width="2" stroke-miterlimit="10" stroke-linecap="round" stroke-linejoin="round"/>
<path d="M19.7002 29.1C21.6002 29.8 23.4002 29.9 25.0002 29.1" stroke="#4D4D4D" stroke-width="2" stroke-miterlimit="10" stroke-linejoin="round"/>
<path d="M42.6001 65.9C42.6001 61.5 39.0001 57.9 34.6001 57.9L26.1001 58.6C26.1001 58.6 22.4001 62.8 22.4001 74.6C22.4001 62.9 18.3001 58.6 18.3001 58.6L10.0001 57.9C5.60012 57.9 2.00012 61.5 2.00012 65.9V67.2C7.30011 72.1 14.4001 75 22.2001 75C30.1001 75 37.2001 72 42.6001 67V65.9Z" fill="#5C5C5C"/>
<path d="M42.6001 65.9C42.6001 61.5 39.0001 57.9 34.6001 57.9L26.1001 58.6C26.1001 58.6 22.4001 62.8 22.4001 74.6C22.4001 62.9 18.3001 58.6 18.3001 58.6L10.0001 57.9C5.60012 57.9 2.00012 61.5 2.00012 65.9V67.2C7.30011 72.1 14.4001 75 22.2001 75C30.1001 75 37.2001 72 42.6001 67V65.9Z" fill="white"/>
<path d="M42.6001 65.9C42.6001 61.5 39.0001 57.9 34.6001 57.9L26.1001 58.6C26.1001 58.6 22.4001 62.8 22.4001 74.6C22.4001 62.9 18.3001 58.6 18.3001 58.6L10.0001 57.9C5.60012 57.9 2.00012 61.5 2.00012 65.9V67.2C7.30011 72.1 14.4001 75 22.2001 75C30.1001 75 37.2001 72 42.6001 67V65.9Z" stroke="#4D4D4D" stroke-width="2" stroke-miterlimit="10" stroke-linejoin="round"/>
<path d="M42.6001 65.9C42.6001 61.5 39.0001 57.9 34.6001 57.9H32.1001L22.4001 75.1L13.0001 57.9H8.70012C5.60013 57.9 2.00012 61.5 2.00012 65.9V67.2C7.30011 72.1 14.4001 75 22.2001 75C30.1001 75 37.2001 71.9 42.6001 67V65.9Z" fill="#5C5C5C"/>
<path d="M42.6001 65.9C42.6001 61.5 39.0001 57.9 34.6001 57.9H32.1001L22.4001 75.1L13.0001 57.9H8.70012C5.60013 57.9 2.00012 61.5 2.00012 65.9V67.2C7.30011 72.1 14.4001 75 22.2001 75C30.1001 75 37.2001 71.9 42.6001 67V65.9Z" stroke="#4D4D4D" stroke-width="2" stroke-miterlimit="10" stroke-linejoin="round"/>
<path d="M17.4998 52.2C17.4998 52.2 16.6998 56.2 18.1998 59.3C18.1998 59.3 14.3998 62 13.0998 65.9C9.79983 61.4 11.1998 53.8 17.4998 52.2Z" fill="white" stroke="#4D4D4D" stroke-width="2" stroke-miterlimit="10" stroke-linejoin="round"/>
<path d="M27.1998 52.2C27.1998 52.2 27.9998 56.2 26.4998 59.3C26.4998 59.3 30.2998 62 31.5998 65.9C34.8998 61.4 33.4998 53.8 27.1998 52.2Z" fill="white" stroke="#4D4D4D" stroke-width="2" stroke-miterlimit="10" stroke-linejoin="round"/>
<path d="M8.3999 66.7V71.1" stroke="#4D4D4D" stroke-width="2" stroke-miterlimit="10" stroke-linecap="round" stroke-linejoin="round"/>
<path d="M36.2998 66.7V71.1" stroke="#4D4D4D" stroke-width="2" stroke-miterlimit="10" stroke-linecap="round" stroke-linejoin="round"/>
</svg>
